X: 08031
T: Country Dance
R: reel
B: RSCDS 8-3
B: Nath. Gow's Dances for  1812
Z: John Chambers <jc:trillian.mit.edu>
M: C|
L: 1/8
%--------------------
K: D
A2 | "D"d3c edcB | A^GAB ABAF | DBAF DBAF |1 "A7"G2E2 E2 :|2 DBAF "A7"AGEF | "D"D2d2d2 :|
f2 | "A7"efgf edce | "D"defg a2fa | "A7"ageg "D"gfdf |1 "A7"edef e3 :|2 "A7"edcB AA"d.C."Bc |]
%%center Book08/08031-Country_Dance-1.abc

%%sep 1 1 500
%%sep 1 1 500

